X:1
T: Billy Thom's Reel
C:
R:Reel
Q:232
K:A
M:4/4
L:1/8
|:E2|A2af ef ec|Ac ef ec BA|G2eG Be GB|e2^de =dB GB|
A2af ef ec|Ac ef ec BA|G2=G^G EG Bd|cB AG A2:|
|:cB|Aa aA gA fA|eA GA BA GA|BE Ee EE BE|Ee dc BA GB|
Aa aA gA fA|eA GA BA GA|BE Ee dc BA|GA BG A2:|
